assets/images/photo2.svg

<svg width="80" height="80" viewBox="0 0 80 80" fill="none" xmlns="http://www.w3.org/2000/svg">
<path d="M39.9998 39.7L25.2998 32.6V52.4001L39.9998 59.5001V39.7Z" fill="#146288"/>
<path d="M40 39.7V59.5001L54.7 52.4001V32.6L40 39.7Z" fill="#3896C3"/>
<path d="M39.9998 39.7L54.6999 32.6L39.9998 25.5L25.2998 32.6L39.9998 39.7Z" fill="#8BC3DE"/>
<path d="M39.9998 14.2L25.2998 7.09998V26.9L39.9998 34V14.2Z" fill="#146288"/>
<path d="M40 14.2V34L54.7 26.9V7.09998L40 14.2Z" fill="#3896C3"/>
<path d="M39.9998 14.2L54.6999 7.1L39.9998 0L25.2998 7.1L39.9998 14.2Z" fill="#8BC3DE"/>
<path d="M62.9006 51L48.1006 43.9V63.7001L62.9006 70.8001V51Z" fill="#146288"/>
<path d="M62.9004 51V70.8001L77.6004 63.7001V43.9L62.9004 51Z" fill="#3896C3"/>
<path d="M62.9006 51L77.6006 43.9L62.9006 36.8L48.1006 43.9L62.9006 51Z" fill="#8BC3DE"/>
<path d="M62.9006 25.5L48.1006 18.4V38.2001L62.9006 45.3001V25.5Z" fill="#146288"/>
<path d="M62.9004 25.5V45.3001L77.6004 38.2001V18.4L62.9004 25.5Z" fill="#3896C3"/>
<path d="M62.9006 25.5L77.6006 18.4L62.9006 11.3L48.1006 18.4L62.9006 25.5Z" fill="#8BC3DE"/>
<path d="M17.0994 51L2.39941 43.9V63.7001L17.0994 70.8001V51Z" fill="#146288"/>
<path d="M17.0996 51V70.8001L31.8997 63.7001V43.9L17.0996 51Z" fill="#3896C3"/>
<path d="M17.0994 51L31.8996 43.9L17.0994 36.8L2.39941 43.9L17.0994 51Z" fill="#8BC3DE"/>
<path d="M17.0994 25.5L2.39941 18.4V38.2001L17.0994 45.3001V25.5Z" fill="#146288"/>
<path d="M17.0996 25.5V45.3001L31.8997 38.2001V18.4L17.0996 25.5Z" fill="#3896C3"/>
<path d="M17.0994 25.5L31.8996 18.4L17.0994 11.3L2.39941 18.4L17.0994 25.5Z" fill="#8BC3DE"/>
<path d="M39.9998 60.2L25.2998 53.1V72.9L39.9998 80V60.2Z" fill="#146288"/>
<path d="M40 60.2V80L54.7 72.9V53.1L40 60.2Z" fill="#3896C3"/>
<path d="M39.9998 60.2L54.6999 53.1L39.9998 46L25.2998 53.1L39.9998 60.2Z" fill="#8BC3DE"/>
<path d="M39.9998 34.7L25.2998 27.6V47.4L39.9998 54.5V34.7Z" fill="#146288"/>
<path d="M40 34.7V54.5L54.7 47.4V27.6L40 34.7Z" fill="#3896C3"/>
<path d="M39.9998 34.6999L54.6999 27.5999L39.9998 20.4999L25.2998 27.5999L39.9998 34.6999Z" fill="#8BC3DE"/>
</svg>

<svg width="80" height="80" fill="none" xmlns="http://www.w3.org/2000/svg"><path d="M40 39.7l-14.7-7.1v19.8L40 59.5V39.7z" fill="#146288"/><path d="M40 39.7v19.8l14.7-7.1V32.6L40 39.7z" fill="#3896C3"/><path d="M40 39.7l14.7-7.1L40 25.5l-14.7 7.1L40 39.7z" fill="#8BC3DE"/><path d="M40 14.2L25.3 7.1v19.8L40 34V14.2z" fill="#146288"/><path d="M40 14.2V34l14.7-7.1V7.1L40 14.2z" fill="#3896C3"/><path d="M40 14.2l14.7-7.1L40 0 25.3 7.1 40 14.2z" fill="#8BC3DE"/><path d="M62.9 51l-14.8-7.1v19.8l14.8 7.1V51z" fill="#146288"/><path d="M62.9 51v19.8l14.7-7.1V43.9L62.9 51z" fill="#3896C3"/><path d="M62.9 51l14.7-7.1-14.7-7.1-14.8 7.1L62.9 51z" fill="#8BC3DE"/><path d="M62.9 25.5l-14.8-7.1v19.8l14.8 7.1V25.5z" fill="#146288"/><path d="M62.9 25.5v19.8l14.7-7.1V18.4l-14.7 7.1z" fill="#3896C3"/><path d="M62.9 25.5l14.7-7.1-14.7-7.1-14.8 7.1 14.8 7.1z" fill="#8BC3DE"/><path d="M17.1 51L2.4 43.9v19.8l14.7 7.1V51z" fill="#146288"/><path d="M17.1 51v19.8l14.8-7.1V43.9L17.1 51z" fill="#3896C3"/><path d="M17.1 51l14.8-7.1-14.8-7.1-14.7 7.1L17.1 51z" fill="#8BC3DE"/><path d="M17.1 25.5L2.4 18.4v19.8l14.7 7.1V25.5z" fill="#146288"/><path d="M17.1 25.5v19.8l14.8-7.1V18.4l-14.8 7.1z" fill="#3896C3"/><path d="M17.1 25.5l14.8-7.1-14.8-7.1-14.7 7.1 14.7 7.1z" fill="#8BC3DE"/><path d="M40 60.2l-14.7-7.1v19.8L40 80V60.2z" fill="#146288"/><path d="M40 60.2V80l14.7-7.1V53.1L40 60.2z" fill="#3896C3"/><path d="M40 60.2l14.7-7.1L40 46l-14.7 7.1L40 60.2z" fill="#8BC3DE"/><path d="M40 34.7l-14.7-7.1v19.8L40 54.5V34.7z" fill="#146288"/><path d="M40 34.7v19.8l14.7-7.1V27.6L40 34.7z" fill="#3896C3"/><path d="M40 34.7l14.7-7.1L40 20.5l-14.7 7.1L40 34.7z" fill="#8BC3DE"/></svg>
